packages/kaspersky-hexa-ui-icons/src/iconsSVGs/24/Unchecked.svg

<svg width="24" height="24" viewBox="0 0 24 24" fill="none" xmlns="http://www.w3.org/2000/svg">
<path fill-rule="evenodd" clip-rule="evenodd" d="M5 8C5 6.34315 6.34315 5 8 5H16C17.6569 5 19 6.34315 19 8V16C19 17.6569 17.6569 19 16 19H8C6.34315 19 5 17.6569 5 16V8ZM8 7C7.44772 7 7 7.44772 7 8V16C7 16.5523 7.44772 17 8 17H16C16.5523 17 17 16.5523 17 16V8C17 7.44772 16.5523 7 16 7H8Z" fill="black"/>
</svg>

<svg xmlns="http://www.w3.org/2000/svg" width="24" height="24" fill="none" viewBox="0 0 24 24"><path fill="#000" fill-rule="evenodd" d="M5 8c0-1.6569 1.3431-3 3-3h8c1.6569 0 3 1.3431 3 3v8c0 1.6569-1.3431 3-3 3H8c-1.6569 0-3-1.3431-3-3zm3-1c-.5523 0-1 .4477-1 1v8c0 .5523.4477 1 1 1h8c.5523 0 1-.4477 1-1V8c0-.5523-.4477-1-1-1z"/></svg>
